!!!OTL: 216. Bulgar
!!!Genre:	Bulgar
!!!Mode:	Major
!!!Listening/dance:	dance
!!!:	*g:dor
!!!One_Mode:	no
**kern
*thru
*I"P1
*clefG2
*k[f#]
*G:
*M2/4
*>A
=1
!LO:TX:a:i:t=G-major
4.b
8cc
=2
4.cc
8b
=3
(8bL
8aJ)
(8qb/
8a)
8gJ
=4
2dd
=5
(4.b
8dd)
=6
4.cc
8b
=7
(8bL
8a)
(8qb/
(8a)
8gJ)
=8
2g
*>A
=9:|!|:
=1
!LO:TX:a:i:t=G-major
4.b
8cc
=2
4.cc
8b
=3
(8bL
8aJ)
(8qb/
8a)
8gJ
=4
2dd
=5
(4.b
8dd)
=6
4.cc
8b
=7
(8bL
8a)
(8qb/
(8a)
8gJ)
=8
2g
*>B
=9:|!|:
*k[b-]
!!!Begin-Modulation
*-
